Numix-GalliumOS/16/categories/applications-monodevelopment.svg

<?xml version="1.0" encoding="UTF-8" standalone="no"?>
<svg
   xmlns:dc="http://purl.org/dc/elements/1.1/"
   xmlns:cc="http://creativecommons.org/ns#"
   xmlns:rdf="http://www.w3.org/1999/02/22-rdf-syntax-ns#"
   xmlns:svg="http://www.w3.org/2000/svg"
   xmlns="http://www.w3.org/2000/svg"
   xmlns:sodipodi="http://sodipodi.sourceforge.net/DTD/sodipodi-0.dtd"
   xmlns:inkscape="http://www.inkscape.org/namespaces/inkscape"
   width="16"
   height="16"
   viewBox="0 0 16 16"
   id="svg2"
   version="1.1"
   inkscape:version="0.91 r"
   sodipodi:docname="applications-monodevelopment.svg">
  <metadata
     id="metadata16">
    <rdf:RDF>
      <cc:Work
         rdf:about="">
        <dc:format>image/svg+xml</dc:format>
        <dc:type
           rdf:resource="http://purl.org/dc/dcmitype/StillImage" />
      </cc:Work>
    </rdf:RDF>
  </metadata>
  <defs
     id="defs14" />
  <sodipodi:namedview
     pagecolor="#ffffff"
     bordercolor="#666666"
     borderopacity="1"
     objecttolerance="10"
     gridtolerance="10"
     guidetolerance="10"
     inkscape:pageopacity="0"
     inkscape:pageshadow="2"
     inkscape:window-width="1680"
     inkscape:window-height="1026"
     id="namedview12"
     showgrid="false"
     inkscape:zoom="14.75"
     inkscape:cx="8"
     inkscape:cy="8"
     inkscape:window-x="0"
     inkscape:window-y="24"
     inkscape:window-maximized="1"
     inkscape:current-layer="svg2" />
  <path
     style="fill:none;stroke:#6996af;stroke-width:0.4948"
     d="M 12.30887,2.9456065 C 11.535433,3.2620128 9.0471516,4.3010753 8.9846516,4.328419 8.2854329,3.7581065 7.3830891,3.3167003 6.4416829,3.265919 4.1682454,3.1213878 2.0744954,5.1448253 2.0705891,7.3870128 c -0.1015625,2.015625 0.8203125,3.8828122 1.6523438,5.6679682 0.6953124,-0.292968 3.2265625,-1.347656 3.2929687,-1.375 0.6796875,0.570313 1.5546875,0.992188 2.46875,1.058594 2.2382814,0.1875 4.3203124,-1.746094 4.4335934,-3.9335934 0.164063,-2.0468751 -0.78125,-3.9414063 -1.574218,-5.7734376 -0.01172,-0.027344 -0.02344,-0.058594 -0.03516,-0.085937 z"
     id="path4"
     inkscape:connector-curvature="0" />
  <g
     style="fill:#6996af"
     id="g6"
     transform="translate(0.08230787,0.08232527)">
    <path
       d="M 4.15625,11.664062 C 3.664062,10.476562 3.015625,9.429688 3,7.484375 2.984375,5.480469 4.707031,4.179688 6.066406,4.179688 c 1.648438,0 3.097656,1.390624 3.171875,2.542968 C 9.308594,7.761719 8.9375,9.273438 7.027344,9.261719 6.117188,9.257812 5.167969,8.464844 5.164062,7.285156 5.160156,6.011719 6.753906,5.886719 7.15625,6.210938 c 0.15625,0.125 0.152344,0.375 0.011719,0.332031 C 6.308594,6.261719 5.78125,6.8125 5.820312,7.363281 5.871094,8.105469 6.316406,8.546875 7.105469,8.585938 8.246094,8.640625 8.566406,7.527344 8.539062,7.078125 8.503906,6.53125 8.023438,5.402344 6.539062,5.199219 5.835938,5.101562 5.253906,5.3125 4.832031,5.722656 4.40625,6.132812 4.167969,6.5625 4.132812,7.257812 4.097656,7.980469 4.253906,8.40625 4.6875,9.355469 4.839844,9.691406 5.273438,10.375 5.605469,11.058594 Z"
       id="path8"
       inkscape:connector-curvature="0" />
    <path
       d="m 11.675781,4.179688 c 0.492188,1.191406 1.144531,2.238281 1.15625,4.179687 0.01563,2.007813 -1.707031,3.304687 -3.066406,3.304687 -1.644531,0 -3.097656,-1.390624 -3.171875,-2.542968 C 6.523438,8.082031 6.894531,6.570312 8.804688,6.582031 9.714844,6.585938 10.664062,7.378906 10.667969,8.5625 10.675781,9.832031 9.078125,9.957031 8.675781,9.632812 8.519531,9.507812 8.527344,9.257812 8.664062,9.304688 9.523438,9.582031 10.054688,9.03125 10.011719,8.484375 9.960938,7.738281 9.519531,7.296875 8.726562,7.257812 7.585938,7.207031 7.265625,8.316406 7.292969,8.765625 c 0.039062,0.546875 0.515625,1.675781 2,1.878906 0.703125,0.09766 1.285156,-0.109375 1.710937,-0.523437 C 11.425781,9.710938 11.664062,9.285156 11.699219,8.585938 11.738281,7.863281 11.578125,7.441406 11.148438,6.492188 10.992188,6.152344 10.5625,5.46875 10.226562,4.785156 Z"
       id="path10"
       inkscape:connector-curvature="0" />
  </g>
</svg>

<svg xmlns="http://www.w3.org/2000/svg" viewBox="0 0 16 16">
 <path d="m 12.309 2.946 c -0.773 0.316 -3.262 1.355 -3.324 1.383 -0.699 -0.57 -1.602 -1.012 -2.543 -1.063 -2.273 -0.145 -4.367 1.879 -4.371 4.121 c -0.102 2.02 0.82 3.883 1.652 5.668 0.695 -0.293 3.227 -1.348 3.293 -1.375 0.68 0.57 1.555 0.992 2.469 1.059 2.238 0.188 4.32 -1.746 4.434 -3.934 0.164 -2.047 -0.781 -3.941 -1.574 -5.773 -0.012 -0.027 -0.023 -0.059 -0.035 -0.086 z" style="fill:none;stroke:#6996af;stroke-width:0.495"/>
 <g transform="translate(0.08230787,0.08232527)" style="fill:#6996af">
  <path d="m 4.156 11.664 c -0.492 -1.188 -1.141 -2.234 -1.156 -4.18 -0.016 -2 1.707 -3.305 3.066 -3.305 c 1.648 0 3.098 1.391 3.172 2.543 c 0.07 1.039 -0.301 2.551 -2.211 2.539 -0.91 -0.004 -1.859 -0.797 -1.863 -1.977 -0.004 -1.273 1.59 -1.398 1.992 -1.074 c 0.156 0.125 0.152 0.375 0.012 0.332 c -0.859 -0.281 -1.387 0.27 -1.348 0.82 0.051 0.742 0.496 1.184 1.285 1.223 1.141 0.055 1.461 -1.059 1.434 -1.508 -0.035 -0.547 -0.516 -1.676 -2 -1.879 -0.703 -0.098 -1.285 0.113 -1.707 0.523 -0.426 0.41 -0.664 0.84 -0.699 1.535 -0.035 0.723 0.121 1.148 0.555 2.098 0.152 0.336 0.586 1.02 0.918 1.703"/>
  <path d="m 11.676 4.18 c 0.492 1.191 1.145 2.238 1.156 4.18 0.016 2.01 -1.707 3.305 -3.066 3.305 -1.645 0 -3.098 -1.391 -3.172 -2.543 c -0.07 -1.039 0.301 -2.551 2.211 -2.539 0.91 0.004 1.859 0.797 1.863 1.98 0.008 1.27 -1.59 1.395 -1.992 1.07 -0.156 -0.125 -0.148 -0.375 -0.012 -0.328 0.859 0.277 1.391 -0.273 1.348 -0.82 -0.051 -0.746 -0.492 -1.188 -1.285 -1.227 -1.141 -0.051 -1.461 1.059 -1.434 1.508 c 0.039 0.547 0.516 1.676 2 1.879 0.703 0.098 1.285 -0.109 1.711 -0.523 c 0.422 -0.41 0.66 -0.836 0.695 -1.535 0.039 -0.723 -0.121 -1.145 -0.551 -2.094 -0.156 -0.34 -0.586 -1.023 -0.922 -1.707"/>
 </g>
</svg>
